src/img/promo-gpon-page/receiver.svg

<svg width="36" height="31" viewBox="0 0 36 31" fill="none" xmlns="http://www.w3.org/2000/svg">
    <g clip-path="url(#clip0_1729:20544)">
        <path opacity="0.1" fill-rule="evenodd" clip-rule="evenodd" d="M20.4082 8.83683C20.4082 4.95554 23.6177 1.79297 27.5969 1.79297C31.5762 1.79297 34.7857 4.95554 34.7857 8.83683C34.7857 12.2561 32.2948 15.1176 28.981 15.7504V16.7661C32.8383 16.1206 35.7857 12.8231 35.7857 8.83683C35.7857 4.3854 32.1105 0.792969 27.5969 0.792969C23.0834 0.792969 19.4082 4.3854 19.4082 8.83683C19.4082 12.7498 22.2481 15.999 26.0009 16.7278V15.7066C22.7935 14.9947 20.4082 12.1828 20.4082 8.83683ZM28.981 14.6322C31.6761 14.0394 33.6996 11.6762 33.6996 8.83683C33.6996 5.54811 30.985 2.89823 27.6565 2.89823C24.3281 2.89823 21.6135 5.54811 21.6135 8.83683C21.6135 11.5587 23.4729 13.843 26.0009 14.5496V13.5034C24.025 12.8315 22.6135 10.9906 22.6135 8.83683C22.6135 6.11824 24.8623 3.89823 27.6565 3.89823C30.4508 3.89823 32.6996 6.11824 32.6996 8.83683C32.6996 11.1091 31.1285 13.0331 28.981 13.6036V14.6322ZM28.981 12.5239C30.4825 11.9547 31.5539 10.5235 31.5539 8.83682C31.5539 6.64621 29.7466 4.88653 27.5373 4.88653C25.3281 4.88653 23.5208 6.64621 23.5208 8.83682C23.5208 10.4886 24.5483 11.8953 26.0009 12.4875V11.3766C25.1126 10.8612 24.5208 9.91314 24.5208 8.83682C24.5208 7.21635 25.8623 5.88653 27.5373 5.88653C29.2124 5.88653 30.5539 7.21635 30.5539 8.83682C30.5539 9.95017 29.9206 10.9263 28.981 11.4283V12.5239Z" fill="#ECBDA7"/>
        <path d="M33.6942 19.4219H2.30744C1.19811 19.4219 0.298828 20.3042 0.298828 21.3926V26.457C0.298828 27.5454 1.19811 28.4277 2.30744 28.4277H33.6942C34.8035 28.4277 35.7028 27.5454 35.7028 26.457V21.3926C35.7028 20.3042 34.8035 19.4219 33.6942 19.4219Z" stroke="#FA4907" stroke-miterlimit="10"/>
        <path d="M7.20311 28.4258H3.62695V30.7065H7.20311V28.4258Z" stroke="#FA4907" stroke-miterlimit="10"/>
        <path d="M32.1348 28.4258H28.5586V30.7065H32.1348V28.4258Z" stroke="#FA4907" stroke-miterlimit="10"/>
        <path d="M27.4901 8C27.8853 8 28.2643 8.15403 28.5437 8.42821C28.8231 8.70238 28.9801 9.07424 28.9801 9.46199V19.1111H26V9.46199C26 9.07424 26.157 8.70238 26.4364 8.42821C26.7159 8.15403 27.0949 8 27.4901 8V8Z" stroke="#FA4907" stroke-miterlimit="10"/>
        <path d="M26.6432 23.5156H25.4512V24.6852H26.6432V23.5156Z" fill="#FA4907"/>
        <path d="M28.9674 23.5742H27.7754V24.7438H28.9674V23.5742Z" fill="#FA4907"/>
        <path d="M30.9948 23.5742H29.8027V24.7438H30.9948V23.5742Z" fill="#FA4907"/>
    </g>
    <defs>
        <clipPath id="clip0_1729:20544">
            <rect width="36" height="31" fill="white"/>
        </clipPath>
    </defs>
</svg>

<svg width="36" height="31" fill="none" xmlns="http://www.w3.org/2000/svg"><g clip-path="url(#a)"><path opacity=".1" fill-rule="evenodd" clip-rule="evenodd" d="M20.408 8.837c0-3.881 3.21-7.044 7.189-7.044 3.98 0 7.189 3.163 7.189 7.044 0 3.42-2.491 6.28-5.805 6.913v1.016c3.857-.645 6.805-3.943 6.805-7.93 0-4.45-3.675-8.043-8.19-8.043-4.513 0-8.188 3.592-8.188 8.044 0 3.913 2.84 7.162 6.593 7.89v-1.02c-3.207-.712-5.593-3.524-5.593-6.87Zm8.573 5.795c2.695-.593 4.719-2.956 4.719-5.795 0-3.289-2.715-5.939-6.044-5.939-3.328 0-6.043 2.65-6.043 5.939 0 2.722 1.86 5.006 4.388 5.713v-1.047c-1.976-.671-3.388-2.512-3.388-4.666 0-2.719 2.25-4.939 5.044-4.939 2.794 0 5.043 2.22 5.043 4.939 0 2.272-1.572 4.196-3.719 4.767v1.028Zm0-2.108c1.502-.57 2.573-2 2.573-3.687 0-2.19-1.807-3.95-4.017-3.95-2.209 0-4.016 1.76-4.016 3.95 0 1.652 1.027 3.058 2.48 3.65v-1.11a2.94 2.94 0 0 1-1.48-2.54c0-1.62 1.341-2.95 3.016-2.95s3.017 1.33 3.017 2.95c0 1.113-.633 2.09-1.573 2.591v1.096Z" fill="#ECBDA7"/><path d="M33.694 19.422H2.307c-1.109 0-2.008.882-2.008 1.97v5.065c0 1.088.9 1.97 2.008 1.97h31.387c1.11 0 2.009-.882 2.009-1.97v-5.064c0-1.089-.9-1.971-2.009-1.971Z" stroke="#FA4907" stroke-miterlimit="10"/><path d="M7.203 28.426H3.627v2.28h3.576v-2.28ZM32.135 28.426h-3.576v2.28h3.576v-2.28ZM27.49 8c.395 0 .774.154 1.054.428s.436.646.436 1.034v9.65H26v-9.65c0-.388.157-.76.436-1.034.28-.274.659-.428 1.054-.428Z" stroke="#FA4907" stroke-miterlimit="10"/><path d="M26.643 23.516h-1.192v1.17h1.192v-1.17ZM28.967 23.574h-1.192v1.17h1.192v-1.17ZM30.995 23.574h-1.192v1.17h1.192v-1.17Z" fill="#FA4907"/></g><defs><clipPath id="a"><path fill="#fff" d="M0 0h36v31H0z"/></clipPath></defs></svg>
